_icons/SVG/549-lilligant.svg

<svg xmlns="http://www.w3.org/2000/svg" width="32" height="32"><path fill="#78DF7C" d="M3 12c2 0 3 4 6 4 3.419 0 5-1 5-1v2s-2 2-6 2c-5 0-7.432-7-5-7z"/><path fill="#6CD275" d="M29.048 12c-2 0-3 4-6 4-3.419 0-5-1-5-1v2s2 2 6 2c5 0 7.433-7 5-7z"/><path fill="#78DF7C" d="M15.213 19.117a.5.5 0 01.36.369c.467 2.054-.88 4.76-2.906 6.787-2.031 2.031-4.096 2.731-6.13 2.166a.52.52 0 01-.355-.355c-.561-2.031.174-4.061 2.204-6.092 2.03-2.03 4.708-3.413 6.827-2.875z"/><path fill="#6CD275" d="M16.787 19.117a.503.503 0 00-.361.369c-.467 2.054.88 4.76 2.906 6.787 2.031 2.031 4.096 2.731 6.13 2.166a.52.52 0 00.355-.355c.561-2.031-.174-4.061-2.204-6.092-2.029-2.03-4.707-3.413-6.826-2.875z"/><ellipse fill="#E3E5E5" cx="16" cy="19" rx="3" ry="5"/><path fill="#EDEEEE" d="M16 24c-1.657 0-3-2.239-3-5s1.343-5 3-5v10z"/><circle fill="#FFD96C" cx="16" cy="30" r="2"/><path fill="#FFE28A" d="M16 32a2 2 0 110-4v4z"/><ellipse transform="rotate(-45.001 13.581 29.419)" fill="#FFE28A" cx="13.581" cy="29.419" rx="2" ry="1"/><ellipse transform="rotate(-45.001 18.418 29.419)" fill="#FFD96C" cx="18.419" cy="29.419" rx="1" ry="2"/><path fill="#D9F07D" d="M16.978 25.455c-.211-2.687-1.937-5.277-3.73-6.32a.494.494 0 00-.496 0C10.838 20.248 9 23.124 9 26a4.001 4.001 0 004.448 3.976c2.2-.24 3.704-2.315 3.53-4.521z"/><path fill="#CBEB6B" d="M22.978 25.455c-.211-2.687-1.937-5.277-3.73-6.32a.494.494 0 00-.496 0C16.838 20.248 15 23.124 15 26a4.001 4.001 0 004.448 3.976c2.2-.24 3.704-2.315 3.53-4.521z"/><path fill="#FFD96C" d="M18 16c0 1.105-.895 3-2 3s-2-1.895-2-3 .895-2 2-2 2 .895 2 2z"/><path fill="#FFE28A" d="M16 19c-1.105 0-2-1.895-2-3s.895-2 2-2v5z"/><ellipse transform="rotate(-45.001 13.581 15.419)" fill="#FFE28A" cx="13.581" cy="15.419" rx="2" ry="1"/><ellipse transform="rotate(-45.001 18.418 15.419)" fill="#FFD96C" cx="18.419" cy="15.419" rx="1" ry="2"/><circle fill="#F7F7F7" cx="16" cy="11" r="5"/><path fill="#FFF" d="M16 16a5 5 0 010-10v10z"/><path fill="#EDEEEE" d="M21 11a5 5 0 01-10 0c1 1 2.239 3 5 3s3-1 5-3z"/><path fill="#F7F7F7" d="M16 16a5 5 0 01-5-5c1 1 2.239 3 5 3v2z"/><ellipse fill="#FF805D" cx="14.5" cy="12" rx=".5" ry="1"/><ellipse fill="#F57552" cx="17.5" cy="12" rx=".5" ry="1"/><path fill="#D9F07D" d="M11 10c-1 4-3.83 8-1 8 2.961 0 3-4 3-8h-2z"/><path fill="#CBEB6B" d="M20.776 10c1 4 3.83 8 1 8-2.961 0-3-4-3-8h2z"/><path fill="#D9F07D" d="M10.27 11.996a.262.262 0 01-.265-.268C10.123 8.821 12.121 6 16 6c1.126 0 3.072-.043 3 1-.172 2.51-4.786 4.891-8.73 4.996z"/><path fill="#E6F490" d="M10.005 11.728a.262.262 0 00.265.268c1.953-.052 4.069-.663 5.73-1.571V6c-3.879 0-5.877 2.821-5.995 5.728z"/><path fill="#D9F07D" d="M19.978 26.455c-.211-2.687-1.937-5.277-3.73-6.32a.494.494 0 00-.496 0C13.838 21.248 12 24.124 12 27a4.001 4.001 0 004.448 3.976c2.2-.24 3.704-2.315 3.53-4.521z"/><path fill="#6CD275" d="M20.359 7.822a.266.266 0 01-.092.263c-1.121.885-3.388.801-5.294.156-1.907-.645-3.722-1.942-4.059-3.357l.089-.263c1.126-.916 3.344-.815 5.252-.17 1.908.646 3.774 1.927 4.104 3.371z"/><path fill="#6CD275" d="M23.583 14.877a.265.265 0 01-.251.121c-1.419-.167-2.962-1.83-3.854-3.633-.893-1.805-1.258-4.005-.497-5.244l.249-.123c1.444.148 2.941 1.789 3.833 3.594.893 1.806 1.307 4.031.52 5.285z"/><path fill="#FFD96C" d="M20.333 3.838L22.222.689c.065-.109.232-.062.232.064V3.02c0 .049.053.079.095.054l3.012-1.807c.112-.067.238.06.171.171L23.925 4.45a.063.063 0 00.054.095h2.267c.127 0 .173.167.064.232l-3.149 1.889-2.828-2.828z"/><path fill="#F57552" d="M17.077 5.795c-1.331-1.331-1.438-3.93-.266-5.41.107-.135.317-.1.409.045.977 1.548 2.015.538 3.349 1.872 1.414 1.414 1.365 2.878.388 3.854-1.032 1.034-2.466 1.053-3.88-.361zm4.428 4.128c1.331 1.331 3.93 1.438 5.41.266.135-.107.1-.317-.045-.409-1.548-.977-.538-2.015-1.872-3.349-1.414-1.414-2.878-1.365-3.854-.388-1.033 1.032-1.053 2.466.361 3.88z"/><path fill="#FF805D" d="M22.102 9.141c-1.367 1.367-3.778 1.879-4.95.707s-.66-3.583.707-4.95 3.071-1.172 4.243 0 1.366 2.876 0 4.243z"/><circle fill="#FF805D" cx="25.439" cy="1.561" r=".5"/><circle fill="#FF805D" cx="22.257" cy=".5" r=".5"/><circle fill="#FF805D" cx="26.5" cy="4.743" r=".5"/><path fill="#78DF7C" d="M11.003 4.621l-.089.263c.338 1.414 2.152 2.711 4.059 3.357.334.113.679.201 1.027.277V4.376c-1.847-.57-3.92-.631-4.997.245z"/><path fill="#E6F490" d="M15.752 20.134C13.838 21.248 12 24.124 12 27c0 2.207 1.793 3.973 4 3.976V20.068a.495.495 0 00-.248.066z"/></svg>

<?xml version="1.0" encoding="utf-8"?>
<!-- Generator: Adobe Illustrator 23.0.6, SVG Export Plug-In . SVG Version: 6.00 Build 0)  -->
<svg version="1.1" xmlns="http://www.w3.org/2000/svg" xmlns:xlink="http://www.w3.org/1999/xlink" x="0px" y="0px" width="32px"
	 height="32px" viewBox="0 0 32 32" enable-background="new 0 0 32 32" xml:space="preserve">
<g id="labels">
	<g>
	</g>
</g>
<g id="icons">
	<g>
		<path fill="#78DF7C" d="M3,12c2,0,3,4,6,4c3.419,0,5-1,5-1v2c0,0-2,2-6,2C3,19,0.568,12,3,12z"/>
		<path fill="#6CD275" d="M29.048,12c-2,0-3,4-6,4c-3.419,0-5-1-5-1v2c0,0,2,2,6,2C29.048,19,31.481,12,29.048,12z"/>
		<path fill="#78DF7C" d="M15.213,19.117c0.177,0.045,0.32,0.191,0.36,0.369c0.467,2.054-0.88,4.76-2.906,6.787
			c-2.031,2.031-4.096,2.731-6.13,2.166c-0.169-0.047-0.308-0.186-0.355-0.355c-0.561-2.031,0.174-4.061,2.204-6.092
			C10.416,19.962,13.094,18.579,15.213,19.117z"/>
		<path fill="#6CD275" d="M16.787,19.117c-0.177,0.045-0.32,0.191-0.361,0.369c-0.467,2.054,0.88,4.76,2.906,6.787
			c2.031,2.031,4.096,2.731,6.13,2.166c0.169-0.047,0.308-0.186,0.355-0.355c0.561-2.031-0.174-4.061-2.204-6.092
			C21.584,19.962,18.906,18.579,16.787,19.117z"/>
		<ellipse fill="#E3E5E5" cx="16" cy="19" rx="3" ry="5"/>
		<path fill="#EDEEEE" d="M16,24c-1.657,0-3-2.239-3-5s1.343-5,3-5V24z"/>
		<circle fill="#FFD96C" cx="16" cy="30" r="2"/>
		<path fill="#FFE28A" d="M16,32c-1.105,0-2-0.895-2-2s0.895-2,2-2V32z"/>
		
			<ellipse transform="matrix(0.7071 -0.7071 0.7071 0.7071 -16.8241 18.22)" fill="#FFE28A" cx="13.581" cy="29.419" rx="2" ry="1"/>
		
			<ellipse transform="matrix(0.7071 -0.7071 0.7071 0.7071 -15.4074 21.6403)" fill="#FFD96C" cx="18.419" cy="29.419" rx="1" ry="2"/>
		<path fill="#D9F07D" d="M16.978,25.455c-0.211-2.687-1.937-5.277-3.73-6.32c-0.153-0.089-0.343-0.089-0.496,0
			C10.838,20.248,9,23.124,9,26c0,2.357,2.038,4.238,4.448,3.976C15.648,29.736,17.152,27.661,16.978,25.455z"/>
		<path fill="#CBEB6B" d="M22.978,25.455c-0.211-2.687-1.937-5.277-3.73-6.32c-0.153-0.089-0.343-0.089-0.496,0
			C16.838,20.248,15,23.124,15,26c0,2.357,2.038,4.238,4.448,3.976C21.648,29.736,23.152,27.661,22.978,25.455z"/>
		<path fill="#FFD96C" d="M18,16c0,1.105-0.895,3-2,3s-2-1.895-2-3s0.895-2,2-2S18,14.895,18,16z"/>
		<path fill="#FFE28A" d="M16,19c-1.105,0-2-1.895-2-3s0.895-2,2-2V19z"/>
		
			<ellipse transform="matrix(0.7071 -0.7071 0.7071 0.7071 -6.9246 14.1195)" fill="#FFE28A" cx="13.581" cy="15.419" rx="2" ry="1"/>
		
			<ellipse transform="matrix(0.7071 -0.7071 0.7071 0.7071 -5.5079 17.5398)" fill="#FFD96C" cx="18.419" cy="15.419" rx="1" ry="2"/>
		<circle fill="#F7F7F7" cx="16" cy="11" r="5"/>
		<path fill="#FFFFFF" d="M16,16c-2.761,0-5-2.239-5-5s2.239-5,5-5V16z"/>
		<path fill="#EDEEEE" d="M21,11c0,2.761-2.239,5-5,5s-5-2.239-5-5c1,1,2.239,3,5,3S19,13,21,11z"/>
		<path fill="#F7F7F7" d="M16,16c-2.761,0-5-2.239-5-5c1,1,2.239,3,5,3V16z"/>
		<ellipse fill="#FF805D" cx="14.5" cy="12" rx="0.5" ry="1"/>
		<ellipse fill="#F57552" cx="17.5" cy="12" rx="0.5" ry="1"/>
		<path fill="#D9F07D" d="M11,10c-1,4-3.83,8-1,8c2.961,0,3-4,3-8H11z"/>
		<path fill="#CBEB6B" d="M20.776,10c1,4,3.83,8,1,8c-2.961,0-3-4-3-8H20.776z"/>
		<path fill="#D9F07D" d="M10.27,11.996C10.124,12,10,11.874,10.005,11.728C10.123,8.821,12.121,6,16,6c1.126,0,3.072-0.043,3,1
			C18.828,9.51,14.214,11.891,10.27,11.996z"/>
		<g>
			<path fill="#E6F490" d="M10.005,11.728C10,11.874,10.124,12,10.27,11.996c1.953-0.052,4.069-0.663,5.73-1.571V6
				C12.121,6,10.123,8.821,10.005,11.728z"/>
		</g>
		<path fill="#D9F07D" d="M19.978,26.455c-0.211-2.687-1.937-5.277-3.73-6.32c-0.153-0.089-0.343-0.089-0.496,0
			C13.838,21.248,12,24.124,12,27c0,2.357,2.038,4.238,4.448,3.976C18.648,30.736,20.152,28.661,19.978,26.455z"/>
		<path fill="#6CD275" d="M20.359,7.822c0.022,0.096-0.015,0.202-0.092,0.263c-1.121,0.885-3.388,0.801-5.294,0.156
			c-1.907-0.645-3.722-1.942-4.059-3.357c0.032-0.093,0.058-0.17,0.089-0.263c1.126-0.916,3.344-0.815,5.252-0.17
			C18.163,5.097,20.029,6.378,20.359,7.822z"/>
		<path fill="#6CD275" d="M23.583,14.877c-0.052,0.084-0.153,0.132-0.251,0.121c-1.419-0.167-2.962-1.83-3.854-3.633
			C18.585,9.56,18.22,7.36,18.981,6.121c0.088-0.043,0.161-0.079,0.249-0.123c1.444,0.148,2.941,1.789,3.833,3.594
			C23.956,11.398,24.37,13.623,23.583,14.877z"/>
		<g>
			<path fill="#FFD96C" d="M20.333,3.838l1.889-3.149c0.065-0.109,0.232-0.062,0.232,0.064v2.267c0,0.049,0.053,0.079,0.095,0.054
				l3.012-1.807c0.112-0.067,0.238,0.06,0.171,0.171l-1.807,3.012c-0.025,0.042,0.005,0.095,0.054,0.095h2.267
				c0.127,0,0.173,0.167,0.064,0.232l-3.149,1.889L20.333,3.838z"/>
			<path fill="#F57552" d="M17.077,5.795c-1.331-1.331-1.438-3.93-0.266-5.41c0.107-0.135,0.317-0.1,0.409,0.045
				c0.977,1.548,2.015,0.538,3.349,1.872c1.414,1.414,1.365,2.878,0.388,3.854C19.925,7.19,18.491,7.209,17.077,5.795z"/>
			<path fill="#F57552" d="M21.505,9.923c1.331,1.331,3.93,1.438,5.41,0.266c0.135-0.107,0.1-0.317-0.045-0.409
				c-1.548-0.977-0.538-2.015-1.872-3.349c-1.414-1.414-2.878-1.365-3.854-0.388C20.111,7.075,20.091,8.509,21.505,9.923z"/>
			<path fill="#FF805D" d="M22.102,9.141c-1.367,1.367-3.778,1.879-4.95,0.707s-0.66-3.583,0.707-4.95
				c1.367-1.367,3.071-1.172,4.243,0S23.468,7.774,22.102,9.141z"/>
			<circle fill="#FF805D" cx="25.439" cy="1.561" r="0.5"/>
			<circle fill="#FF805D" cx="22.257" cy="0.5" r="0.5"/>
			<circle fill="#FF805D" cx="26.5" cy="4.743" r="0.5"/>
		</g>
		<g>
			<path fill="#78DF7C" d="M11.003,4.621c-0.032,0.093-0.058,0.17-0.089,0.263c0.338,1.414,2.152,2.711,4.059,3.357
				C15.307,8.354,15.652,8.442,16,8.518V4.376C14.153,3.806,12.08,3.745,11.003,4.621z"/>
		</g>
		<g>
			<path fill="#E6F490" d="M15.752,20.134C13.838,21.248,12,24.124,12,27c0,2.207,1.793,3.973,4,3.976V20.068
				C15.914,20.068,15.828,20.09,15.752,20.134z"/>
		</g>
	</g>
</g>
</svg>
